X: 215
T: No_71_Alligator_Dance_Song_(g).krn
N: Derived from No_71_Alligator_Dance_Song_(g).krn
%%abc-version 2.0
%%abcx-abcm2ps-target-version 5.9.1 (29 Sep 2008)
%%abc-creator hum2abc beta
%%abcx-conversion-date 2019/03/15 08:38:45
%%humdrum-veritas 580027299
%%humdrum-veritas-data 3198042313
%%linebreak <none>
%%barnumbers 0
L: 1/16
M: 2/4
K: G clef=bass
[K:clef=bass][M:2/4]z3 D D3B, | 
A,8 | 
G,2 z A, A,3G, ||  
[M:3/4]G,4z3 A, (3A,2G,2B,2 ||  
[M:2/4]A,8 | 
E,2 z A, A,3G, | 
G,2 z D D3B, | 
G,2 z2z4 ||  
[M:3/4]B,4z4B,3B, | 
B,6z B, B,2 z B, | 
B,6z B, B,2 z B, ||  
[M:5/8]B,6B,B, z2 |]  



